X:884
T:Xiraldilla (CT 391)
R:Xiraldilla
C:Tradicional
S:Msica Tradicional Asturiana, (C) Tello & Tito. Asturies, 2001.
S:http://pagina.de/MusTradAst <telloytito@asturies.org>
N:Xiraldilla, transcrita en Uviu.
N:Esta xiraldilla es, de antiguo, mui corriente en las romeras que se celebran en el concejo de Uviu.
A:Asturies
O:Uviu
Z:Cancioneru de Torner 391
M:2/4
L:1/8
Q:1/4=100
K:G
d|: d2 Ac|B2 B2|d2 Ac|[1 B2 zd :|[2 B2 zG|
|: Ge ee|ed Bd|d3 c|(e2 d2)|de dc|[1 B2 zG :|[2 B2 z||
W:Si caigo o no caigo,
W:nia a tus pies,
W:o si me levanto:
W:no s que hacer.
W:
W:si me caso contigo,
W:todo lo logr; (bis)
W:si me caso contigo,
W:mi amor te dar. (bis)
W:
